X: 1
T: Easter Sunday
M: 4/4
L: 1/8
C: Paddy O'Brien
D: Kinnity Sessions, Lunasa
K: Ador
EAAB cBcA|B~G3 BcdB|AGAB cBce|dBGB {d}BAAd|
E2 AB cBce|dG B/c/d gedg|eaaf f-gab|1 gedB ABAG:|2 gedB ABcd||
eaag edBA|B~G3 BcdB|ABcd eaab|g2 {a}gf gedg|
e~a3 b~g3|aged BedB|A~E3 GA B/c/d|1 gedB ABcd:|2 gedB ABAG||
